extra/scalable/places/folder-publicshare.svg

<svg width="256" height="256" fill="none" version="1.1" viewBox="0 0 256 256" xmlns="http://www.w3.org/2000/svg">
 <path d="m8 56c0-8.8366 7.1634-16 16-16h71.797c3.3814 0 6.6759 1.0713 9.4109 3.0602l13.584 9.8796c2.735 1.9889 6.029 3.0602 9.411 3.0602h103.8c8.837 0 16 7.1634 16 16v128c0 8.837-7.163 16-16 16h-208c-8.8366 0-16-7.163-16-16z" fill="url(#paint0_linear_2449_564)"/>
 <path d="m8 88c0-8.8366 7.1634-16 16-16h208c8.837 0 16 7.1634 16 16v112c0 8.837-7.163 16-16 16h-208c-8.8366 0-16-7.163-16-16z" fill="url(#paint1_linear_2449_564)"/>
 <g fill="#fff">
  <path d="m180 115c0 11.046-8.954 20-20 20-3.033 0-5.908-0.675-8.484-1.883 0.873-2.545 1.347-5.276 1.347-8.117 0-8.237-3.984-15.544-10.13-20.099 3.472-5.9233 9.905-9.901 17.267-9.901 11.046 0 20 8.954 20 20z"/>
  <path d="m96 135c2.9867 0 5.82-0.655 8.366-1.828-0.886-2.561-1.366-5.31-1.366-8.172 0-8.28 4.025-15.62 10.225-20.169-3.481-5.8848-9.892-9.831-17.225-9.831-11.046 0-20 8.954-20 20s8.9543 20 20 20z"/>
  <path d="m120.9 153.03c-37.899 0.939-37.899 26.757-37.899 26.757v2.217h-27v-7.217s0-26.763 40-26.783c11.09-6e-3 19.106 2.05 24.899 5.026z"/>
  <path d="m135 153.03c37.899 0.94 37.899 26.757 37.899 26.757v2.217h27v-7.217s0-26.763-40-26.783c-11.09-6e-3 -19.106 2.051-24.899 5.026z"/>
  <path d="m168 184.78s0-26.803-40-26.783-40 26.783-40 26.783v7.217h80v-7.217z"/>
  <path d="m148 125c0 11.046-8.954 20-20 20s-20-8.954-20-20 8.954-20 20-20 20 8.954 20 20z"/>
 </g>
 <defs>
  <linearGradient id="paint0_linear_2449_564" x1="121" x2="121" y1="72.5" y2="40" gradientUnits="userSpaceOnUse">
   <stop stop-color="#484848" offset="0"/>
   <stop stop-color="#636363" offset="1"/>
  </linearGradient>
  <linearGradient id="paint1_linear_2449_564" x1="248" x2="40.837" y1="72" y2="253.48" gradientUnits="userSpaceOnUse">
   <stop stop-color="#979FAD" offset="0"/>
   <stop stop-color="#808080" offset="1"/>
  </linearGradient>
 </defs>
</svg>

<svg width="256" height="256" viewBox="0 0 256 256" fill="none" xmlns="http://www.w3.org/2000/svg">
<path d="M8 56C8 47.1634 15.1634 40 24 40H95.7971C99.1785 40 102.473 41.0713 105.208 43.0602L123 56H232C240.837 56 248 63.1634 248 72V200C248 208.837 240.837 216 232 216H24C15.1634 216 8 208.837 8 200V56Z" fill="url(#paint0_linear_2449_564)"/>
<rect x="8" y="72" width="240" height="144" rx="16" fill="url(#paint1_linear_2449_564)"/>
<path d="M180 115C180 126.046 171.046 135 160 135C156.967 135 154.092 134.325 151.516 133.117C152.389 130.572 152.863 127.841 152.863 125C152.863 116.763 148.879 109.456 142.733 104.901C146.205 98.9777 152.638 95 160 95C171.046 95 180 103.954 180 115Z" fill="white"/>
<path d="M96 135C98.9867 135 101.82 134.345 104.366 133.172C103.48 130.611 103 127.862 103 125C103 116.72 107.025 109.38 113.225 104.831C109.744 98.9462 103.333 95 96 95C84.9543 95 76 103.954 76 115C76 126.046 84.9543 135 96 135Z" fill="white"/>
<path d="M120.899 153.026C83 153.965 83 179.783 83 179.783V182H56V174.783C56 174.783 56 148.02 96 148C107.09 147.994 115.106 150.05 120.899 153.026Z" fill="white"/>
<path d="M135 153.026C172.899 153.966 172.899 179.783 172.899 179.783V182H199.899V174.783C199.899 174.783 199.899 148.02 159.899 148C148.809 147.994 140.793 150.051 135 153.026Z" fill="white"/>
<path d="M168 184.783C168 184.783 168 157.98 128 158C88 158.02 88 184.783 88 184.783V192H168V184.783Z" fill="white"/>
<path d="M148 125C148 136.046 139.046 145 128 145C116.954 145 108 136.046 108 125C108 113.954 116.954 105 128 105C139.046 105 148 113.954 148 125Z" fill="white"/>
<defs>
<linearGradient id="paint0_linear_2449_564" x1="121" y1="72.5" x2="121" y2="40" gradientUnits="userSpaceOnUse">
<stop stop-color="#484848"/>
<stop offset="1" stop-color="#636363"/>
</linearGradient>
<linearGradient id="paint1_linear_2449_564" x1="248" y1="72" x2="40.837" y2="253.483" gradientUnits="userSpaceOnUse">
<stop stop-color="#979FAD"/>
<stop offset="1" stop-color="#808080"/>
</linearGradient>
</defs>
</svg>
